X:368
T:Humours of Kiltyclogher, The
R:jig
Z:id:hn-jig-368
M:6/8
L:1/8
K:Ador
B|AGE G2E|c2E G2E|DED D2E|GED D2B|
AGE G2E|c2E DEG|ABc BGE|A3 A2:|
|:B|c2B c2d|ecA ABc|~B3 GAB|dBG GAB|
c2B c2d|ecA ABc|BAG GAB|A3 A2:|

